X:1
T:We Will Follow Jesus
T:Isaac Hickman Meredith
T:We Will Follow Jesus
T:Public Domain
T:Public Domain
C:Isaac Hickman Meredith
Z:Public Domain
%%score ( 1 2 ) ( 3 4 )
L:1/8
M:2/4
K:C
V:1 treble 
V:2 treble 
V:3 bass 
V:4 bass 
V:1
 [CE][CE] [CE][DF] | [EG]2 [CE]2 | [CA][CB] [Cc][FA] | [EG]4 | [DF][DF] [CE][B,D] | [CE]2 [EG]2 | %6
w: 1.~We will fol- low|Je- sus,|Though we may be|small;|Glad- ly may we|list- en|
w: 2.~We will fol- low|Je- sus,|Ev- ery- where He|leads;|Show Him un- to|o- thers|
w: 3.~We will fol- low|Je- sus,|To the lands a-|far,|Till each tribe and|na- tion|
w: 4.~Just to fol- low|Je- sus,|Makes the day seem|bright,|Fills the heart with|sing- ing,|
 [D^F][DG] [FA][FB] | G4 ||"^Refrain" [Ec][Ec] [EB][EG] | [FA]2 [EG]2 | [DF][DG] [CE][CG] | %11
w: To His lov- ing|call.||||
w: By our lov- ing|deeds.|tle ones may fol-|low, Fol-|low all the way.|
w: See the “Morn- ing|Star.”||||
w: Through the dark- est|night.||||
 [B,D]4 | [CE][CE] [DG][DG] | [Cc]2 C2 | [CE]C [B,D][B,D] | C4 |] %16
w: |||||
w: Je-|sus bids us fol-|low Ev-|pass- ing day. *||
w: |||||
w: |||||
V:2
 x4 | x4 | x4 | x4 | x4 | x4 | x4 | G4 || x4 | x4 | x4 | x4 | x4 | x2 C2 | x4 | C4 |] %16
w: ||||||||||||||||
w: |||||||Lit-||||||ery|||
V:3
 [C,G,][C,G,] [C,G,][C,G,] | [C,C]2 [C,G,]2 | F,[F,G,] [F,A,][F,C] | [C,C]4 | G,G, [G,,G,][G,,G,] | %5
 [C,G,]2 [C,C]2 | [D,A,][D,B,] [D,C][D,D] | [G,B,]4 || [C,C][C,C] [C,C][C,C] | [F,C]2 [C,C]2 | %10
 [B,,G,][B,,G,] [C,G,][E,G,] | G,4 | [C,G,][C,G,] [B,,G,][B,,G,] | [A,,A,]2 [_A,,^D,]2 | %14
 [G,,E,][G,,E,] [G,,F,][G,,F,] | [C,E,]4 |] %16
V:4
 x4 | x4 | F, x3 | x4 | G,G, x2 | x4 | x4 | x4 || x4 | x4 | x4 | G,4 | x4 | x4 | x4 | x4 |] %16

